X:1
T:Title
%%score 1 2
L:1/8
Q:1/4=90
M:6/8
K:Ab
V:1 treble nm="Drawbar Organ, Soprano"
V:2 bass nm="Church Organ, No Room in Heaven"
V:1
 [CE][CE][_C=D] [=CE][Ec][_DB] | [CA][EG][DF] [DF] [CE]2 | [CE][EA][DG] [CA][Ec][EB] | %3
w: By~Isaiah~Baltzell * * * * *|||
 [EA][Ec][EB]- [EB]2- [EB]/ z/ | E[CE][_C=D] [=CE][Ec][_DB] | [CA][CA][DB] [Ec] [Fd]2 | %6
w: |||
 [DF][CE][CA] [DB] [Ec]2 | [DB][DB][CA]- [CA]2- [CA]/ z/ | z [Ec]2 z [Ec]2 | %9
w: |||
 z [Ec][Ed] [Ee] [FB]2 | z [EB]2- [EB] [EB]2 | [EB][EB][Ec] [Ed] [Ec]2 | z [Ae]2- [Ae] [Ac]2- | %13
w: ||||
 [Ac] [FA]2- [FA] [DF]2 | [DF] [CE]2 [CA][Ec]<[Ec] | [DB] [CA]2- [CA]2- [CA]/ z/ | %16
w: |||
 z [DF]2- [DF] [CE]2- | [CE] [DF]2- [DF] [CE]2 | [CE] [EG]2 [EG][EG][CA] | [EB] [CA]2- [CA]3- | %20
w: ||||
 [CA]3 z3 |] %21
w: |
V:2
 [A,,A,][A,,A,][A,,A,] [A,,A,][A,,A,][A,,A,] | [A,,A,][D,A,][D,A,] [D,A,] [A,,A,]2 | %2
 [A,,A,][C,A,][B,,E,] [A,,E,][A,,A,][B,,G,] | [C,A,][E,A,][E,G,]- [E,G,]2- [E,G,]/ z/ | %4
 [E,G,][A,,A,][A,,A,] [A,,A,][A,,A,][A,,A,] | [A,,A,][A,,A,][A,,A,] [A,,A,] [D,A,]2 | %6
 [D,A,][E,A,][E,A,] [E,G,] [E,G,]2 | [E,G,][A,,A,][A,,A,]- [A,,A,]2- [A,,A,]/ z/ | z A,2 z A,2 | %9
 z A,[A,B,] [A,C] [D,D]2 | z [E,G,]2- [E,G,] [E,G,]2 | [E,G,][E,G,][E,A,] [E,B,] A,2 | %12
 z [A,C]2- [A,C] [A,E]2- | [A,E] [D,D]2- [D,D] [D,A,]2 | [D,A,] [E,A,]2 [E,A,][E,A,]<[E,A,] | %15
 [E,G,] [A,,A,]2- [A,,A,]2- [A,,A,]/ z/ | z [D,A,]2- [D,A,] [A,,A,]2- | %17
 [A,,A,] [D,A,]2- [D,A,] [A,,A,]2 | [A,,A,] [E,B,]2 [E,B,][E,B,][E,A,] | %19
 [E,G,] [A,,A,]2- [A,,A,]3- | [A,,A,]3 z3 |] %21

